;FLAVOR:Marlin
;TIME:6921
;Filament used: 6.6634m
;Layer height: 0.28
;MINX:73.012
;MINY:45.763
;MINZ:0.28
;MAXX:148.5
;MAXY:174.237
;MAXZ:19.88
;Generated with Cura_SteamEngine 4.8.0
M140 S60
M105
M190 S60
M104 S210
M105
M109 S210
M82 ;absolute extrusion mode
; Ender 3 Custom Start G-code
G92 E0 ; Reset Extruder
G28 ; Home all axes
G1 Z2.0 F3000 ; Move Z Axis up little to prevent scratching of Heat Bed
G1 X0.1 Y20 Z0.3 F5000.0 ; Move to start position
G1 X0.1 Y200.0 Z0.3 F1500.0 E15 ; Draw the first line
G1 X0.4 Y200.0 Z0.3 F5000.0 ; Move to side a little
G1 X0.4 Y20 Z0.3 F1500.0 E30 ; Draw the second line
G92 E0 ; Reset Extruder
G1 Z2.0 F3000 ; Move Z Axis up little to prevent scratching of Heat Bed
G1 X5 Y20 Z0.3 F5000.0 ; Move over to prevent blob squish
G92 E0
G92 E0
G1 F1500 E-6.5
;LAYER_COUNT:71
;LAYER:0
M107
G0 F6000 X82.593 Y51.959 Z0.28
;TYPE:SKIRT
G1 F1500 E0
G1 F1200 X83.099 Y51.17 E0.04365
G1 X83.671 Y50.426 E0.08734
G1 X84.304 Y49.734 E0.13101
G1 X84.994 Y49.099 E0.17468
G1 X85.72 Y48.535 E0.21749
G1 X86.24 Y48.165 E0.2472
G1 X86.489 Y47.993 E0.2613
G1 X86.966 Y47.673 E0.28804
G1 X87.766 Y47.184 E0.3317
G1 X88.605 Y46.765 E0.37537
G1 X89.477 Y46.42 E0.41904
G1 X90.375 Y46.149 E0.46271
G1 X91.293 Y45.956 E0.50639
G1 X92.224 Y45.842 E0.55007
G1 X92.879 Y45.81 E0.5806
G1 X93.799 Y45.792 E0.62345
G1 X94 Y45.79 E0.63281
G1 X109.852 Y45.77 E1.37095
G1 X136.553 Y45.763 E2.61426
G1 X137.381 Y45.774 E2.65282
G1 X138.317 Y45.828 E2.69647
G1 X139.246 Y45.962 E2.74018
G1 X140.159 Y46.175 E2.78383
G1 X141.051 Y46.464 E2.82749
G1 X141.916 Y46.828 E2.87119
G1 X142.746 Y47.265 E2.91487
G1 X143.535 Y47.771 E2.95852
G1 X144.279 Y48.342 E3.00219
G1 X144.972 Y48.974 E3.04586
G1 X145.608 Y49.664 E3.08956
G1 X146.183 Y50.405 E3.13323
G1 X146.693 Y51.192 E3.1769
G1 X147.134 Y52.019 E3.22054
G1 X147.449 Y52.742 E3.25726
G1 X147.551 Y53.001 E3.27022
G1 X147.857 Y53.888 E3.31391
G1 X148.025 Y54.518 E3.34427
G1 X148.16 Y55.093 E3.37178
G1 X148.335 Y56.014 E3.41543
G1 X148.41 Y56.659 E3.44567
G1 X148.435 Y56.948 E3.45917
G1 X148.458 Y57.274 E3.47439
G1 X148.472 Y57.521 E3.48591
G1 X148.485 Y57.81 E3.49938
G1 X148.495 Y58.14 E3.51476
G1 X148.5 Y58.473 E3.53026
G1 X148.499 Y76.464 E4.368
G1 X148.488 Y77.171 E4.40092
G1 X148.433 Y78.107 E4.44458
G1 X148.299 Y79.036 E4.48829
G1 X148.086 Y79.949 E4.53194
G1 X147.912 Y80.515 E4.55952
G1 X147.591 Y81.466 E4.60625
G1 X146.788 Y83.964 E4.72843
G1 X146.093 Y86.354 E4.84433
G1 X145.453 Y88.815 E4.96274
G1 X144.88 Y91.294 E5.08121
G1 X144.396 Y93.714 E5.19613
G1 X143.968 Y96.211 E5.3141
G1 X143.614 Y98.698 E5.43107
G1 X143.328 Y101.216 E5.54907
G1 X143.115 Y103.708 E5.66553
G1 X142.973 Y106.206 E5.78204
G1 X142.901 Y108.753 E5.90068
G1 X142.901 Y111.242 E6.01658
G1 X142.973 Y113.773 E6.13448
G1 X143.116 Y116.313 E6.25294
G1 X143.325 Y118.773 E6.36791
G1 X143.611 Y121.292 E6.48595
G1 X143.969 Y123.81 E6.60438
G1 X144.391 Y126.274 E6.72079
G1 X144.88 Y128.714 E6.83666
G1 X145.445 Y131.176 E6.95428
G1 X146.085 Y133.632 E7.07246
G1 X146.784 Y136.038 E7.18913
G1 X147.564 Y138.468 E7.30797
G1 X147.833 Y139.243 E7.34617
G1 X147.976 Y139.683 E7.36771
G1 X148.221 Y140.589 E7.41141
G1 X148.388 Y141.511 E7.45504
G1 X148.485 Y142.667 E7.50906
G1 X148.495 Y142.992 E7.5242
G1 X148.5 Y143.33 E7.53994
G1 X148.499 Y161.284 E8.37595
G1 X148.489 Y162.008 E8.40967
G1 X148.479 Y162.342 E8.42523
G1 X148.471 Y162.523 E8.43367
G1 X148.443 Y162.961 E8.4541
G1 X148.415 Y163.293 E8.46962
G1 X148.243 Y164.512 E8.52694
G1 X148.184 Y164.809 E8.54104
G1 X148.101 Y165.193 E8.55933
G1 X148.063 Y165.354 E8.56704
G1 X147.723 Y166.507 E8.62301
G1 X147.581 Y166.907 E8.64278
G1 X147.23 Y167.777 E8.68646
G1 X146.806 Y168.613 E8.73011
G1 X146.312 Y169.411 E8.77381
G1 X145.753 Y170.163 E8.81744
G1 X145.131 Y170.865 E8.86111
G1 X144.451 Y171.512 E8.90482
G1 X143.719 Y172.098 E8.94848
G1 X142.94 Y172.62 E8.99215
G1 X142.119 Y173.073 E9.03581
G1 X141.262 Y173.455 E9.0795
G1 X140.376 Y173.763 E9.12318
G1 X139.468 Y173.994 E9.1668
G1 X138.542 Y174.147 E9.21051
G1 X137.567 Y174.221 E9.25604
G1 X137.085 Y174.234 E9.27849
G1 X136.778 Y174.237 E9.29278
G1 X109.843 Y174.229 E10.54699
G1 X93.753 Y174.21 E11.29621
G1 X92.92 Y174.197 E11.335
G1 X91.997 Y174.143 E11.37805
G1 X91.898 Y174.133 E11.38269
G1 X91.378 Y174.068 E11.40709
G1 X91.137 Y174.032 E11.41844
G1 X90.216 Y173.854 E11.46212
G1 X89.314 Y173.599 E11.50576
G1 X88.436 Y173.267 E11.54947
G1 X87.883 Y173.012 E11.57783
G1 X87.687 Y172.915 E11.58801
G1 X86.865 Y172.463 E11.63169
G1 X86.084 Y171.943 E11.67538
G1 X85.351 Y171.359 E11.71902
G1 X84.67 Y170.714 E11.7627
G1 X83.808 Y169.712 E11.82424
G1 X83.254 Y168.917 E11.86936
G1 X82.724 Y167.983 E11.91937
G1 X82.417 Y167.374 E11.95113
G1 X82.289 Y167.11 E11.96479
G1 X82.02 Y166.539 E11.99418
G1 X81.657 Y165.674 E12.03786
G1 X81.369 Y164.782 E12.08151
G1 X81.111 Y163.601 E12.13779
G1 X81.019 Y163.025 E12.16496
G1 X80.762 Y161.271 E12.2475
G1 X80.333 Y158.827 E12.36304
G1 X79.831 Y156.375 E12.47959
G1 X79.245 Y153.878 E12.59902
G1 X78.612 Y151.484 E12.71432
G1 X77.896 Y149.055 E12.83224
G1 X77.112 Y146.651 E12.94998
G1 X76.27 Y144.296 E13.06644
G1 X75.354 Y141.949 E13.18375
G1 X74.338 Y139.541 E13.30545
G1 X73.981 Y138.57 E13.35362
G1 X73.857 Y138.157 E13.3737
G1 X73.681 Y137.522 E13.40439
G1 X73.531 Y136.957 E13.43161
G1 X73.358 Y136.268 E13.46469
G1 X73.169 Y135.349 E13.50837
G1 X73.058 Y134.418 E13.55203
G1 X73.029 Y133.778 E13.58186
G1 X73.012 Y132.718 E13.63123
G1 X73.012 Y86.976 E15.76117
G1 X73.022 Y86.292 E15.79302
G1 X73.076 Y85.356 E15.83668
G1 X73.209 Y84.428 E15.88033
G1 X73.344 Y83.805 E15.91001
G1 X73.609 Y82.743 E15.96098
G1 X73.709 Y82.376 E15.97869
G1 X73.897 Y81.716 E16.01065
G1 X74.295 Y80.563 E16.06744
G1 X74.495 Y80.078 E16.09187
G1 X75.268 Y78.26 E16.18386
G1 X76.199 Y75.885 E16.30264
G1 X77.045 Y73.528 E16.41925
G1 X77.82 Y71.164 E16.53509
G1 X78.542 Y68.735 E16.65309
G1 X79.189 Y66.306 E16.77014
G1 X79.771 Y63.845 E16.88789
G1 X80.286 Y61.354 E17.00634
G1 X80.72 Y58.899 E17.12242
G1 X81.069 Y56.558 E17.23264
G1 X81.109 Y56.266 E17.24636
G1 X81.275 Y55.343 E17.29003
G1 X81.615 Y54.144 E17.34806
G1 X81.694 Y53.916 E17.3593
G1 X82.156 Y52.789 E17.41601
G1 X82.593 Y51.959 E17.45969
G0 F6000 X82.947 Y52.146
G1 F1200 X83.446 Y51.372 E17.50257
G1 X84.01 Y50.645 E17.54542
G1 X84.635 Y49.969 E17.58829
G1 X85.317 Y49.35 E17.63117
G1 X85.952 Y48.861 E17.66849
G1 X86.472 Y48.491 E17.69821
G1 X86.712 Y48.325 E17.7118
G1 X87.189 Y48.005 E17.73854
G1 X87.975 Y47.526 E17.7814
G1 X88.799 Y47.117 E17.82424
G1 X89.657 Y46.781 E17.86714
G1 X90.54 Y46.52 E17.91002
G1 X91.442 Y46.338 E17.95287
G1 X92.357 Y46.234 E17.99575
G1 X92.887 Y46.21 E18.02045
G1 X93.807 Y46.192 E18.0633
G1 X94.001 Y46.19 E18.07233
G1 X109.852 Y46.17 E18.81042
G1 X136.553 Y46.163 E20.05373
G1 X137.375 Y46.174 E20.09201
G1 X138.294 Y46.228 E20.13488
G1 X139.205 Y46.362 E20.17776
G1 X140.101 Y46.574 E20.22063
G1 X140.975 Y46.863 E20.26349
G1 X141.821 Y47.226 E20.30636
G1 X142.632 Y47.662 E20.34923
G1 X143.402 Y48.167 E20.39211
G1 X144.125 Y48.736 E20.43495
G1 X144.797 Y49.366 E20.47784
G1 X145.411 Y50.052 E20.52071
G1 X145.963 Y50.789 E20.56359
G1 X146.449 Y51.57 E20.60642
G1 X146.866 Y52.391 E20.6493
G1 X147.077 Y52.889 E20.67449
G1 X147.179 Y53.148 E20.68745
G1 X147.479 Y54.018 E20.7303
G1 X147.635 Y54.609 E20.75876
G1 X147.77 Y55.184 E20.78626
G1 X147.942 Y56.089 E20.82916
G1 X148.012 Y56.693 E20.85747
G1 X148.037 Y56.982 E20.87098
G1 X148.059 Y57.296 E20.88564
G1 X148.073 Y57.543 E20.89716
G1 X148.085 Y57.822 E20.91016
G1 X148.095 Y58.152 E20.92553
G1 X148.1 Y58.473 E20.94048
G1 X148.099 Y76.458 E21.77794
G1 X148.088 Y77.165 E21.81086
G1 X148.033 Y78.084 E21.85373
G1 X147.9 Y78.995 E21.8966
G1 X147.687 Y79.891 E21.93949
G1 X147.533 Y80.387 E21.96367
G1 X147.211 Y81.342 E22.0106
G1 X146.409 Y83.836 E22.13259
G1 X145.708 Y86.247 E22.2495
G1 X145.059 Y88.739 E22.36941
G1 X144.493 Y91.191 E22.48659
G1 X144.003 Y93.64 E22.60288
G1 X143.571 Y96.159 E22.72189
G1 X143.214 Y98.668 E22.8399
G1 X142.934 Y101.138 E22.95565
G1 X142.716 Y103.688 E23.07482
G1 X142.573 Y106.206 E23.19226
G1 X142.501 Y108.742 E23.31039
G1 X142.501 Y111.253 E23.42731
G1 X142.573 Y113.808 E23.54633
G1 X142.714 Y116.3 E23.66256
G1 X142.931 Y118.851 E23.78177
G1 X143.211 Y121.322 E23.89757
G1 X143.573 Y123.868 E24.01731
G1 X143.998 Y126.349 E24.13452
G1 X144.49 Y128.803 E24.25106
G1 X145.056 Y131.269 E24.36888
G1 X145.7 Y133.739 E24.48773
G1 X146.402 Y136.157 E24.60498
G1 X147.185 Y138.595 E24.72421
G1 X147.455 Y139.374 E24.7626
G1 X147.595 Y139.804 E24.78366
G1 X147.835 Y140.693 E24.82653
G1 X147.996 Y141.599 E24.86938
G1 X148.085 Y142.679 E24.91984
G1 X148.095 Y143.004 E24.93498
G1 X148.1 Y143.33 E24.95016
G1 X148.099 Y161.278 E25.7859
G1 X148.089 Y162.002 E25.81961
G1 X148.08 Y162.324 E25.83461
G1 X148.072 Y162.505 E25.84305
G1 X148.045 Y162.928 E25.86279
G1 X148.017 Y163.26 E25.8783
G1 X147.851 Y164.434 E25.93351
G1 X147.792 Y164.731 E25.94761
G1 X147.712 Y165.101 E25.96524
G1 X147.674 Y165.262 E25.97294
G1 X147.346 Y166.373 E26.02688
G1 X147.204 Y166.773 E26.04665
G1 X146.859 Y167.627 E26.08953
G1 X146.441 Y168.447 E26.13239
G1 X145.953 Y169.228 E26.17527
G1 X145.399 Y169.963 E26.21813
G1 X144.784 Y170.648 E26.261
G1 X144.111 Y171.277 E26.30389
G1 X143.387 Y171.845 E26.34674
G1 X142.616 Y172.348 E26.38961
G1 X141.804 Y172.782 E26.43248
G1 X140.958 Y173.144 E26.47533
G1 X140.083 Y173.432 E26.51822
G1 X139.187 Y173.642 E26.56107
G1 X138.276 Y173.774 E26.60393
G1 X137.554 Y173.822 E26.63763
G1 X137.304 Y173.83 E26.64928
G1 X136.778 Y173.837 E26.67377
G1 X109.843 Y173.829 E27.92798
G1 X93.59 Y173.809 E28.68479
G1 X92.926 Y173.798 E28.71571
G1 X92.037 Y173.745 E28.75718
G1 X91.938 Y173.735 E28.76181
G1 X91.437 Y173.673 E28.78532
G1 X91.196 Y173.637 E28.79666
G1 X90.292 Y173.461 E28.83955
G1 X89.407 Y173.208 E28.88241
G1 X88.547 Y172.879 E28.92528
G1 X88.06 Y172.653 E28.95028
G1 X87.864 Y172.556 E28.96047
G1 X87.058 Y172.112 E29.00331
G1 X86.293 Y171.6 E29.04618
G1 X85.575 Y171.024 E29.08904
G1 X84.91 Y170.387 E29.13192
G1 X84.127 Y169.47 E29.18807
G1 X83.583 Y168.688 E29.23242
G1 X83.082 Y167.803 E29.27978
G1 X82.775 Y167.194 E29.31154
G1 X82.651 Y166.939 E29.32474
G1 X82.382 Y166.368 E29.35413
G1 X82.026 Y165.519 E29.397
G1 X81.745 Y164.643 E29.43984
G1 X81.506 Y163.537 E29.49252
G1 X81.415 Y162.967 E29.5194
G1 X81.158 Y161.216 E29.60181
G1 X80.725 Y158.75 E29.71839
G1 X80.219 Y156.276 E29.83598
G1 X79.644 Y153.824 E29.95325
G1 X78.987 Y151.341 E30.07285
G1 X78.284 Y148.955 E30.18867
G1 X77.482 Y146.497 E30.30907
G1 X76.648 Y144.164 E30.42443
G1 X75.719 Y141.783 E30.54344
G1 X74.707 Y139.385 E30.66464
G1 X74.363 Y138.449 E30.71107
G1 X74.243 Y138.049 E30.73052
G1 X74.067 Y137.419 E30.76098
G1 X73.919 Y136.859 E30.78795
G1 X73.746 Y136.17 E30.82103
G1 X73.561 Y135.269 E30.86386
G1 X73.455 Y134.354 E30.90675
G1 X73.429 Y133.772 E30.93388
G1 X73.412 Y132.718 E30.98296
G1 X73.412 Y86.982 E33.11262
G1 X73.422 Y86.298 E33.14447
G1 X73.476 Y85.379 E33.18734
G1 X73.609 Y84.468 E33.23021
G1 X73.733 Y83.901 E33.25724
G1 X73.996 Y82.846 E33.30786
G1 X74.094 Y82.485 E33.32528
G1 X74.282 Y81.825 E33.35724
G1 X74.666 Y80.714 E33.41197
G1 X74.863 Y80.235 E33.43609
G1 X75.65 Y78.385 E33.5297
G1 X76.568 Y76.041 E33.64692
G1 X77.415 Y73.682 E33.76363
G1 X78.211 Y71.255 E33.88257
G1 X78.926 Y68.847 E33.99953
G1 X79.579 Y66.395 E34.11769
G1 X80.158 Y63.946 E34.23487
G1 X80.679 Y61.433 E34.35437
G1 X81.11 Y58.992 E34.46979
G1 X81.468 Y56.593 E34.58274
G1 X81.505 Y56.32 E34.59557
G1 X81.669 Y55.414 E34.63844
G1 X81.993 Y54.275 E34.69358
G1 X82.072 Y54.047 E34.70481
G1 X82.517 Y52.96 E34.75951
G1 X82.947 Y52.146 E34.80237
G0 F6000 X83.301 Y52.333
G1 F1200 X83.793 Y51.575 E34.84445
G1 X84.349 Y50.864 E34.88648
G1 X84.966 Y50.205 E34.92852
G1 X85.639 Y49.603 E34.97056
G1 X86.183 Y49.187 E35.00245
G1 X86.703 Y48.817 E35.03217
G1 X86.934 Y48.658 E35.04523
G1 X87.411 Y48.338 E35.07197
G1 X88.183 Y47.868 E35.11406
G1 X88.993 Y47.469 E35.1561
G1 X89.835 Y47.143 E35.19815
G1 X90.703 Y46.892 E35.24022
G1 X91.589 Y46.72 E35.28225
G1 X92.894 Y46.61 E35.34323
G1 X94.001 Y46.59 E35.39478
G1 X109.852 Y46.57 E36.13287
G1 X136.553 Y46.563 E37.37618
G1 X137.369 Y46.574 E37.41418
G1 X138.271 Y46.628 E37.45626
G1 X139.164 Y46.761 E37.4983
G1 X140.042 Y46.973 E37.54036
G1 X140.897 Y47.261 E37.58237
G1 X141.724 Y47.624 E37.62442
G1 X142.516 Y48.059 E37.6665
G1 X143.266 Y48.562 E37.70855
G1 X143.968 Y49.13 E37.7506
G1 X144.618 Y49.757 E37.79265
G1 X145.21 Y50.44 E37.83474
G1 X145.738 Y51.172 E37.87676
G1 X146.2 Y51.948 E37.91882
G1 X146.705 Y53.035 E37.97463
G1 X146.807 Y53.294 E37.98759
G1 X147.1 Y54.149 E38.02967
G1 X147.246 Y54.701 E38.05626
G1 X147.381 Y55.276 E38.08376
G1 X147.548 Y56.163 E38.12579
G1 X147.613 Y56.728 E38.15227
G1 X147.638 Y57.017 E38.16578
G1 X147.66 Y57.319 E38.17988
G1 X147.674 Y57.566 E38.1914
G1 X147.685 Y57.834 E38.20389
G1 X147.695 Y58.164 E38.21926
G1 X147.7 Y58.473 E38.23365
G1 X147.699 Y76.452 E39.07083
G1 X147.688 Y77.159 E39.10376
G1 X147.634 Y78.06 E39.14579
G1 X147.5 Y78.953 E39.18783
G1 X147.154 Y80.259 E39.25074
G1 X146.83 Y81.219 E39.29792
G1 X146.027 Y83.717 E39.4201
G1 X145.313 Y86.172 E39.53915
G1 X144.676 Y88.62 E39.65694
G1 X144.105 Y91.094 E39.77517
G1 X143.603 Y93.6 E39.89418
G1 X143.18 Y96.071 E40.01091
G1 X142.82 Y98.598 E40.12976
G1 X142.532 Y101.131 E40.24847
G1 X142.316 Y103.667 E40.36699
G1 X142.173 Y106.171 E40.48377
G1 X142.101 Y108.731 E40.60302
G1 X142.101 Y111.264 E40.72097
G1 X142.173 Y113.805 E40.83934
G1 X142.317 Y116.357 E40.95836
G1 X142.53 Y118.858 E41.07524
G1 X142.817 Y121.386 E41.19371
G1 X143.177 Y123.92 E41.31289
G1 X143.605 Y126.423 E41.43113
G1 X144.103 Y128.907 E41.5491
G1 X144.665 Y131.355 E41.66605
G1 X145.314 Y133.847 E41.78596
G1 X146.023 Y136.286 E41.90423
G1 X146.801 Y138.708 E42.02268
G1 X147.077 Y139.505 E42.06196
G1 X147.163 Y139.764 E42.07467
G1 X147.214 Y139.925 E42.08253
G1 X147.448 Y140.797 E42.12457
G1 X147.604 Y141.686 E42.1666
G1 X147.685 Y142.691 E42.21355
G1 X147.695 Y143.016 E42.22869
G1 X147.7 Y143.33 E42.24331
G1 X147.699 Y161.273 E43.07881
G1 X147.689 Y161.997 E43.11253
G1 X147.68 Y162.306 E43.12692
G1 X147.672 Y162.487 E43.13536
G1 X147.646 Y162.894 E43.15435
G1 X147.618 Y163.226 E43.16986
G1 X147.459 Y164.356 E43.223
G1 X147.4 Y164.653 E43.2371
G1 X147.322 Y165.009 E43.25407
G1 X147.284 Y165.17 E43.26177
G1 X146.969 Y166.239 E43.31366
G1 X146.827 Y166.639 E43.33343
G1 X146.488 Y167.476 E43.37548
G1 X146.076 Y168.28 E43.41755
G1 X145.594 Y169.044 E43.45961
G1 X145.047 Y169.762 E43.50164
G1 X144.438 Y170.429 E43.5437
G1 X143.772 Y171.04 E43.58578
G1 X143.056 Y171.589 E43.62779
G1 X142.293 Y172.073 E43.66987
G1 X141.491 Y172.488 E43.71191
G1 X140.655 Y172.829 E43.75396
G1 X139.792 Y173.096 E43.79602
G1 X138.909 Y173.285 E43.83807
G1 X138.013 Y173.396 E43.88011
G1 X137.541 Y173.422 E43.90212
G1 X137.291 Y173.43 E43.91377
G1 X136.778 Y173.437 E43.93766
G1 X109.844 Y173.429 E45.19182
G1 X93.597 Y173.409 E45.94835
G1 X92.933 Y173.398 E45.97927
G1 X92.077 Y173.347 E46.0192
G1 X91.978 Y173.337 E46.02383
G1 X91.496 Y173.277 E46.04645
G1 X91.255 Y173.241 E46.0578
G1 X90.369 Y173.068 E46.09983
G1 X89.501 Y172.818 E46.14189
G1 X88.659 Y172.491 E46.18395
G1 X88.238 Y172.295 E46.20557
G1 X88.042 Y172.198 E46.21576
G1 X87.251 Y171.762 E46.25781
G1 X86.502 Y171.257 E46.29988
G1 X85.8 Y170.689 E46.34193
G1 X85.151 Y170.061 E46.38398
G1 X84.445 Y169.228 E46.43482
G1 X83.912 Y168.46 E46.47835
G1 X83.439 Y167.622 E46.52316
